z_dist/img/icons/crypto/axie-infinity-AXS.svg

<svg width="64" height="64" viewBox="0 0 64 64" fill="none" xmlns="http://www.w3.org/2000/svg">
<rect width="64" height="64" rx="4" fill="#0055D5"/>
<path fill-rule="evenodd" clip-rule="evenodd" d="M17.4079 21.1711C17.4079 21.1711 13.9647 18.4191 13.7279 25.2159C13.4911 30.4831 13.4975 40.7103 15.9359 45.5423C16.9663 47.3599 18.3423 46.8031 20.9023 44.9919C23.1295 43.3471 31.1871 35.9231 34.5983 32.6655C38.0095 29.4079 44.9279 20.0639 46.3679 26.4127C46.9375 29.0815 47.6415 31.3471 47.1039 37.2671C46.9375 39.0911 46.1567 40.4735 42.5983 38.0031C39.9103 36.2751 37.3567 34.4191 37.3567 34.4191C37.3567 34.4191 36.8639 33.5359 35.6991 34.9695C34.7839 36.1151 34.3231 36.3967 35.7887 37.2671C37.2607 38.1375 44.7039 43.2703 47.5583 44.0703C49.9135 44.7551 51.2575 44.7423 51.3279 40.1151C51.3151 36.4415 51.1039 25.9263 49.7663 21.4463C48.7551 18.6559 47.2703 17.3887 44.0639 20.5247C40.8575 23.6607 30.7455 33.4655 25.2159 37.9071C21.5487 40.6591 19.9807 43.1423 18.5983 38.5535C17.6255 35.0783 16.3647 24.2623 20.3455 26.3231C22.8351 27.5135 24.0767 27.5071 23.1039 28.2559C22.1311 28.9983 19.3343 31.5647 19.3343 31.5647C19.3343 31.5647 18.4703 32.2623 18.8735 33.7727C19.2767 34.8287 19.2767 35.3535 21.4463 33.3119C23.6159 31.2703 25.2159 29.7279 25.2159 29.7279C25.2159 29.7279 25.5615 29.1839 26.5919 30.1887C27.6223 31.1935 27.7887 31.4751 27.7887 31.4751C27.7887 31.4751 28.0639 32.2239 29.1647 30.9247C30.2719 29.6255 30.9823 28.8319 28.8895 27.6159C26.8031 26.3871 17.4079 21.1711 17.4079 21.1711Z" fill="white"/>
</svg>

<svg width="64" height="64" fill="none" xmlns="http://www.w3.org/2000/svg"><rect width="64" height="64" rx="4" fill="#0055D5"/><path fill-rule="evenodd" clip-rule="evenodd" d="M17.408 21.171s-3.443-2.752-3.68 4.045c-.237 5.267-.23 15.494 2.208 20.326 1.03 1.818 2.406 1.261 4.966-.55 2.227-1.645 10.285-9.069 13.696-12.326 3.412-3.258 10.33-12.602 11.77-6.253.57 2.668 1.273 4.934.736 10.854-.166 1.824-.947 3.206-4.506.736-2.688-1.728-5.241-3.584-5.241-3.584s-.493-.883-1.658.55c-.915 1.146-1.376 1.428.09 2.298 1.472.87 8.915 6.003 11.77 6.803 2.355.685 3.699.672 3.769-3.955-.013-3.674-.224-14.189-1.562-18.669-1.01-2.79-2.496-4.057-5.702-.921s-13.319 12.94-18.848 17.382c-3.667 2.752-5.235 5.235-6.618.647-.973-3.476-2.233-14.292 1.748-12.23 2.49 1.19 3.73 1.183 2.758 1.932-.973.742-3.77 3.309-3.77 3.309s-.864.697-.46 2.208c.403 1.056.403 1.58 2.572-.461 2.17-2.042 3.77-3.584 3.77-3.584s.345-.544 1.376.46c1.03 1.006 1.197 1.287 1.197 1.287s.275.749 1.376-.55c1.107-1.3 1.817-2.093-.275-3.31-2.087-1.228-11.482-6.444-11.482-6.444z" fill="#fff"/></svg>
